modules/feathericon/icons/fast-forward.svg

<?xml version="1.0" encoding="UTF-8"?>
<svg width="24px" height="24px" viewBox="0 0 24 24" version="1.1" xmlns="http://www.w3.org/2000/svg" xmlns:xlink="http://www.w3.org/1999/xlink">
    <!-- Generator: sketchtool 52.2 (67145) - http://www.bohemiancoding.com/sketch -->
    <title>fast-forward</title>
    <desc>Created with sketchtool.</desc>
    <g id="media-player" stroke="none" stroke-width="1" fill="none" fill-rule="evenodd">
        <g id="fast-forward" fill="#000000" fill-rule="nonzero">
            <path d="M19,11.99947 C18.9999999,12.2283402 18.8941377,12.4503494 18.7065131,12.5692966 L11.8466676,16.9181884 C11.7620314,16.9718448 11.6668255,17 11.5700252,17 C11.255209,17 11,16.7085156 11,16.3489513 L11,11.9994701 C10.9999999,12.2283402 10.8941377,12.4503494 10.7065131,12.5692966 L3.84666762,16.9181884 C3.76203135,16.9718448 3.66682555,17 3.57002524,17 C3.25520899,17 3,16.7085156 3,16.3489513 L3,7.65116756 C3,7.54060804 3.02465131,7.43186966 3.07163005,7.33520318 C3.22441541,7.02082217 3.57141155,6.90742807 3.84666762,7.08193038 L10.7065131,11.4308222 C10.7997101,11.4899057 10.8765354,11.577651 10.9282659,11.684095 C10.9769072,11.7841824 11.0000001,11.8925745 11,11.99947 L11,7.65116756 C11,7.54060804 11.0246513,7.43186966 11.07163,7.33520318 C11.2244154,7.02082217 11.5714116,6.90742807 11.8466676,7.08193038 L18.7065131,11.4308222 C18.7997101,11.4899057 18.8765354,11.577651 18.9282659,11.684095 C18.9769072,11.7841824 19.0000001,11.8925745 19,11.99947 L19,8 C19,7.44771525 19.4477153,7 20,7 C20.5522847,7 21,7.44771525 21,8 L21,16 C21,16.5522847 20.5,17 20,17 C19.5,17 19,16.5522847 19,16 L19,11.9994701 Z" id="Shape"></path>
        </g>
    </g>
</svg>

<svg width="24" height="24" viewBox="0 0 24 24" xmlns="http://www.w3.org/2000/svg"><path d="M19 12c0 .228-.106.45-.293.57l-6.86 4.348a.516.516 0 0 1-.277.082c-.315 0-.57-.291-.57-.651v-4.35c0 .23-.106.451-.293.57l-6.86 4.35A.516.516 0 0 1 3.57 17c-.315 0-.57-.291-.57-.651V7.651c0-.11.025-.22.072-.316.152-.314.5-.428.775-.253l6.86 4.349c.093.059.17.147.221.253.049.1.072.209.072.315V7.651c0-.11.025-.22.072-.316.152-.314.5-.428.775-.253l6.86 4.349c.093.059.17.147.221.253.049.1.072.209.072.315V8a1 1 0 0 1 2 0v8c0 .552-.5 1-1 1s-1-.448-1-1v-4z" fill="#000" fill-rule="nonzero"/></svg>
